tokens/8453/0xecAc9C5F704e954931349Da37F60E39f515c11c1/logo.svg

<svg width="32" height="32" viewBox="0 0 32 32" fill="none" xmlns="http://www.w3.org/2000/svg">
<mask id="mask0_7092_32672" style="mask-type:alpha" maskUnits="userSpaceOnUse" x="0" y="0" width="32" height="32">
<circle cx="16" cy="16" r="16" fill="#162E2F"/>
</mask>
<g mask="url(#mask0_7092_32672)">
<circle cx="16" cy="16" r="16" fill="#162E2F"/>
<path d="M-6 5H18.8V9.96L21.28 13.06L18.8 16.16L23.14 18.95L18.8 21.74V27.32H-6V5Z" fill="url(#paint0_linear_7092_32672)"/>
<rect y="10" width="12" height="3" fill="url(#paint1_linear_7092_32672)"/>
<rect x="12" y="22" width="12" height="3" transform="rotate(-180 12 22)" fill="url(#paint2_linear_7092_32672)"/>
<path d="M23.771 11.8575C23.5327 9.42123 21.4297 8.60796 18.7759 8.37981L18.7702 5L16.7144 5.00375L16.7201 8.29454C16.1797 8.2954 15.6273 8.30705 15.0784 8.31893L15.0732 5.0063L13.0187 5.00975L13.0237 8.38863C12.5787 8.3985 12.1415 8.40761 11.7154 8.40853L11.7151 8.39796L8.87988 8.40169L8.88413 10.599C8.88413 10.599 10.4021 10.5675 10.377 10.5954C11.2095 10.5942 11.4814 11.0776 11.5611 11.4949C11.5664 14.5834 11.5715 17.6651 11.5764 20.7541C11.5404 21.0164 11.3871 21.4349 10.8053 21.4368C10.8317 21.4601 9.311 21.439 9.311 21.439L8.90658 23.8967L11.5819 23.8921C12.0797 23.892 12.5696 23.8996 13.0506 23.9017L13.0573 27.32L15.1107 27.3168L15.1049 23.9346C15.6688 23.9453 16.2143 23.9489 16.7472 23.9475L16.7519 27.3141L18.8078 27.3103L18.8025 23.898C22.2583 23.6938 24.6757 22.8185 24.9706 19.5698C25.2086 16.954 23.9774 15.7892 22.0149 15.321C23.2058 14.7116 23.9492 13.6402 23.7718 11.8576L23.7711 11.8573L23.771 11.8575ZM20.9072 19.1715C20.9126 21.7261 16.5415 21.4429 15.1483 21.4466L15.1412 16.9174C16.5348 16.9155 20.9029 16.507 20.9073 19.1715L20.9072 19.1715ZM19.9403 12.7831C19.9436 15.1072 16.2982 14.8422 15.1377 14.8442L15.1309 10.7366C16.2914 10.7346 19.9361 10.3592 19.9405 12.7831L19.9403 12.7831Z" fill="#C4FDF2"/>
</g>
<defs>
<linearGradient id="paint0_linear_7092_32672" x1="23.14" y1="16.16" x2="-6" y2="16.16" gradientUnits="userSpaceOnUse">
<stop stop-color="#4E988D"/>
<stop offset="1" stop-color="#264C4A"/>
</linearGradient>
<linearGradient id="paint1_linear_7092_32672" x1="6" y1="10" x2="6" y2="13" gradientUnits="userSpaceOnUse">
<stop stop-opacity="0.1"/>
<stop offset="1" stop-opacity="0"/>
</linearGradient>
<linearGradient id="paint2_linear_7092_32672" x1="18" y1="22" x2="18" y2="25" gradientUnits="userSpaceOnUse">
<stop stop-opacity="0.1"/>
<stop offset="1" stop-opacity="0"/>
</linearGradient>
</defs>
</svg>

<svg xmlns="http://www.w3.org/2000/svg" width="32" height="32" fill="none"><mask id="a" width="32" height="32" x="0" y="0" maskUnits="userSpaceOnUse" style="mask-type:alpha"><circle cx="16" cy="16" r="16" fill="#162E2F"/></mask><g mask="url(#a)"><circle cx="16" cy="16" r="16" fill="#162E2F"/><path fill="url(#b)" d="M-6 5h24.8v4.96l2.48 3.1-2.48 3.1 4.34 2.79-4.34 2.79v5.58H-6z"/><path fill="url(#c)" d="M0 10h12v3H0z"/><path fill="url(#d)" d="M12 22h12v3H12z" transform="rotate(-180 12 22)"/><path fill="#C4FDF2" d="M23.771 11.858c-.238-2.437-2.341-3.25-4.995-3.478L18.77 5l-2.056.004.006 3.29c-.54.001-1.093.013-1.642.025l-.005-3.313-2.054.004.005 3.379q-.668.017-1.309.02v-.011l-2.835.004.004 2.197s1.518-.031 1.493-.004c.832 0 1.104.483 1.184.9l.015 9.26c-.036.261-.189.68-.77.682.026.023-1.495.002-1.495.002l-.404 2.458 2.675-.005c.498 0 .988.008 1.469.01l.006 3.418 2.054-.003-.006-3.382q.845.015 1.642.013l.005 3.366 2.056-.004-.006-3.412c3.456-.204 5.874-1.08 6.169-4.328.238-2.616-.994-3.78-2.956-4.249 1.19-.61 1.934-1.68 1.757-3.463zm-2.864 7.314c.006 2.554-4.366 2.27-5.759 2.275l-.007-4.53c1.394-.002 5.762-.41 5.766 2.255m-.967-6.389c.004 2.324-3.642 2.06-4.802 2.061l-.007-4.107c1.16-.002 4.805-.378 4.81 2.046"/></g><defs><linearGradient id="b" x1="23.14" x2="-6" y1="16.16" y2="16.16" gradientUnits="userSpaceOnUse"><stop stop-color="#4E988D"/><stop offset="1" stop-color="#264C4A"/></linearGradient><linearGradient id="c" x1="6" x2="6" y1="10" y2="13" gradientUnits="userSpaceOnUse"><stop stop-opacity=".1"/><stop offset="1" stop-opacity="0"/></linearGradient><linearGradient id="d" x1="18" x2="18" y1="22" y2="25" gradientUnits="userSpaceOnUse"><stop stop-opacity=".1"/><stop offset="1" stop-opacity="0"/></linearGradient></defs></svg>
